!!!OTL: DIE FRAU WOLLT WALLFAHRN GEHN
!!!ARE: Europa, Mitteleuropa, Deutschland, Bayern
!!!SCT: Z0115
!!!YEM: Copyright 1995, estate of Helmut Schaffrath.
**kern
*ICvox
*Ivox
*M3/8
*k[]
*C:
{8G
8c
8c
=1
8B
16d
16B
8c
=2
4e
8f
=3
4.g}
=4
{8f
8a
8f
=5
8e
8g
8e
=6
8d
16f
16e
16f
16d
=7
8c
8e
8g}
=8
{8f
8a
8f
=9
8e
8g
8e
=10
8d
16f
16e
16f
16d
=11
8c
4r}
==
!!!AGN: Erzaehlung, lustige Romanze
!!!ONB: ESAC (Essen Associative Code) Database: ZUCCAL
!!!AMT: simple triple
!!!AIN: vox
!!!EED: Helmut Schaffrath
!!!EEV: 1.0
*-
